X:0472
T:Miss Jane Bruce's Jig.
G:Jig
M:6/8
L:1/8
Q:3/8=120
I: :: ::
Z:Jack Campin * www.campin.me.uk * 2009
K:D
(A/G/)|FAd dcd|Adf  fef|afd    afd|cee e2
 A/G/ |FAd dcd|Adf  fef|afd    gec|ddd d2::
 f/g/ |afd dcB|ABA  A2A|gab    afd|cee e2
 f/g/ |afd cBe|dce Ha2g|f/g/af gec|ddd d2:|

